resources/imt-icon.svg

<?xml version="1.0" encoding="UTF-8" standalone="no"?>
<svg
   xmlns:dc="http://purl.org/dc/elements/1.1/"
   xmlns:cc="http://creativecommons.org/ns#"
   xmlns:rdf="http://www.w3.org/1999/02/22-rdf-syntax-ns#"
   xmlns:svg="http://www.w3.org/2000/svg"
   xmlns="http://www.w3.org/2000/svg"
   xmlns:sodipodi="http://sodipodi.sourceforge.net/DTD/sodipodi-0.dtd"
   xmlns:inkscape="http://www.inkscape.org/namespaces/inkscape"
   width="50"
   height="40"
   viewBox="0 0 1024 1024"
   version="1.1"
   xml:space="preserve"
   style="clip-rule:evenodd;fill-rule:evenodd;stroke-linejoin:round;stroke-miterlimit:1.41420996"
   id="svg14"
   sodipodi:docname="imt-icon.svg"
   inkscape:version="0.92.3 (2405546, 2018-03-11)"><metadata
   id="metadata20"><rdf:RDF><cc:Work
       rdf:about=""><dc:format>image/svg+xml</dc:format><dc:type
         rdf:resource="http://purl.org/dc/dcmitype/StillImage" /><dc:title></dc:title></cc:Work></rdf:RDF></metadata><defs
   id="defs18" /><sodipodi:namedview
   pagecolor="#ffffff"
   bordercolor="#666666"
   borderopacity="1"
   objecttolerance="10"
   gridtolerance="10"
   guidetolerance="10"
   inkscape:pageopacity="0"
   inkscape:pageshadow="2"
   inkscape:window-width="1920"
   inkscape:window-height="1147"
   id="namedview16"
   showgrid="false"
   inkscape:zoom="20.85965"
   inkscape:cx="34.087809"
   inkscape:cy="22.536762"
   inkscape:window-x="1358"
   inkscape:window-y="-8"
   inkscape:window-maximized="1"
   inkscape:current-layer="svg14"
   units="px"
   showguides="true"
   inkscape:guide-bbox="true"><sodipodi:guide
     position="-60.871587,510.53589"
     orientation="0,1"
     id="guide3845"
     inkscape:locked="false" /><sodipodi:guide
     position="511.51769,1191.6595"
     orientation="1,0"
     id="guide3847"
     inkscape:locked="false" /></sodipodi:namedview>
    
    
    
<g
   style="clip-rule:evenodd;fill-rule:evenodd;stroke-linejoin:round;stroke-miterlimit:1.41420996"
   id="g18"
   transform="matrix(0.95845683,0,0,0.95845683,19.437379,36.23364)"><g
     id="g4"
     transform="matrix(0.52744827,0,0,0.52744827,-413.10992,7.6751287)"><path
       inkscape:connector-curvature="0"
       id="path2"
       style="fill:#cccccc"
       d="M 1517.72,287.582 V 547.007 C 1376.55,628.744 1281.5,781.44 1281.5,956.16 c 0,260.75 211.69,472.44 472.44,472.44 260.74,0 472.44,-211.69 472.44,-472.44 0,-174.72 -95.05,-327.416 -236.22,-409.153 V 287.582 c 275.29,97.385 472.73,360.107 472.73,668.578 0,391.28 -317.67,708.95 -708.95,708.95 -391.28,0 -708.95,-317.67 -708.95,-708.95 0,-308.471 197.43,-571.193 472.73,-668.578 z" /></g><g
     id="g8"
     transform="matrix(0.52744827,0,0,0.52744827,-413.10992,7.6751287)"><path
       inkscape:connector-curvature="0"
       id="path6"
       style="fill:#2f8cbb"
       d="m 1635.83,257.023 c 38.41,-6.453 77.87,-9.812 118.11,-9.812 40.23,0 79.69,3.359 118.11,9.812 v 241.606 c -37.76,-9.732 -77.34,-14.91 -118.11,-14.91 -40.78,0 -80.36,5.178 -118.11,14.91 z" /></g><g
     id="g12"
     transform="matrix(0.52744827,0,0,0.52744827,-413.10992,7.6751287)"><path
       inkscape:connector-curvature="0"
       id="path10"
       style="fill:#2f8cbb"
       d="M 1635.83,1172.72 V 622.024 c 36.95,-13.077 76.7,-20.194 118.11,-20.194 41.4,0 81.16,7.117 118.11,20.194 v 550.696 c -36.95,13.08 -76.71,20.19 -118.11,20.19 -41.41,0 -81.16,-7.11 -118.11,-20.19 z" /></g></g></svg>

<?xml version="1.0" encoding="UTF-8" standalone="no"?>
<!DOCTYPE svg PUBLIC "-//W3C//DTD SVG 1.1//EN" "http://www.w3.org/Graphics/SVG/1.1/DTD/svg11.dtd">
<svg width="100%" height="100%" viewBox="0 0 28 28" version="1.1" xmlns="http://www.w3.org/2000/svg" xmlns:xlink="http://www.w3.org/1999/xlink" xml:space="preserve" xmlns:serif="http://www.serif.com/" style="fill-rule:evenodd;clip-rule:evenodd;stroke-linejoin:round;stroke-miterlimit:2;">
    <g transform="matrix(0.0197475,0,0,0.0197475,-20.6359,-4.88179)">
        <path d="M1517.72,287.582L1517.72,547.007C1376.55,628.744 1281.5,781.44 1281.5,956.16C1281.5,1216.91 1493.19,1428.6 1753.94,1428.6C2014.68,1428.6 2226.38,1216.91 2226.38,956.16C2226.38,781.44 2131.33,628.744 1990.16,547.007L1990.16,287.582C2265.45,384.967 2462.89,647.689 2462.89,956.16C2462.89,1347.44 2145.22,1665.11 1753.94,1665.11C1362.66,1665.11 1044.99,1347.44 1044.99,956.16C1044.99,647.689 1242.42,384.967 1517.72,287.582Z" style="fill:rgb(255,255,255);"/>
    </g>
    <g transform="matrix(0.0197475,0,0,0.0197475,-20.6359,-4.88179)">
        <path d="M1635.83,257.023C1674.24,250.57 1713.7,247.211 1753.94,247.211C1794.17,247.211 1833.63,250.57 1872.05,257.023L1872.05,498.629C1834.29,488.897 1794.71,483.719 1753.94,483.719C1713.16,483.719 1673.58,488.897 1635.83,498.629L1635.83,257.023Z" style="fill:rgb(255,255,255);"/>
    </g>
    <g transform="matrix(0.0197475,0,0,0.0197475,-20.6359,-4.88179)">
        <path d="M1635.83,1172.72L1635.83,622.024C1672.78,608.947 1712.53,601.83 1753.94,601.83C1795.34,601.83 1835.1,608.947 1872.05,622.024L1872.05,1172.72C1835.1,1185.8 1795.34,1192.91 1753.94,1192.91C1712.53,1192.91 1672.78,1185.8 1635.83,1172.72Z" style="fill:rgb(255,255,255);"/>
    </g>
</svg>
